X: 1
T: Mutt's Favourite
M: 4/4
L: 1/8
R: reel
K: Ador
|:EAAc B2Ac|BAAg feea|EAAc B2Ac|BAGA BcdD|
EAAc B2Ac|BAAg feef|gfgd e2eg|BGBc dBGB:|
|:EA~A2 fA~A2|gA~A2 aA~A2|EAfA gAaA|efdB BAAG:|
